src/assets/logo/reuters.svg

<?xml version="1.0" encoding="UTF-8" standalone="no"?><!DOCTYPE svg PUBLIC "-//W3C//DTD SVG 1.1//EN" "http://www.w3.org/Graphics/SVG/1.1/DTD/svg11.dtd"><svg width="100%" height="100%" viewBox="0 0 540 200" version="1.1" xmlns="http://www.w3.org/2000/svg" xmlns:xlink="http://www.w3.org/1999/xlink" xml:space="preserve" xmlns:serif="http://www.serif.com/" style="fill-rule:evenodd;clip-rule:evenodd;stroke-linejoin:round;stroke-miterlimit:1.41421;"><g id="reuters"><path id="path4285" d="M475.693,56l0,88c24.515,0 44.281,-19.61 44.281,-43.992c0,-24.204 -19.766,-44.008 -44.281,-44.008Zm10.263,63.099c-3.089,0 -5.799,2.531 -5.799,5.798c0,3.089 2.71,5.814 5.799,5.814c3.451,0 5.997,-2.725 5.997,-5.814c0,-3.267 -2.546,-5.798 -5.997,-5.798Zm-91.699,-47.013c-14.89,0 -23.987,5.966 -23.987,17.248c0,10.92 9.397,14.246 19.928,15.704c5.087,0.73 11.215,1.66 11.215,6.209c0,4.732 -5.584,5.81 -11.032,5.81c-4.359,0 -12.369,-2.318 -15.274,-5.046l-6.577,9.893c5.809,4.55 13.46,6.209 21.088,6.209c16.161,0 25.147,-5.984 25.147,-17.447c0,-11.647 -10.194,-14.265 -21.088,-15.903c-4.72,-0.728 -10.056,-1.262 -10.056,-5.811c0,-4.004 4.809,-6.009 10.437,-6.009c3.086,0 9.251,1.102 11.612,3.104l6.958,-8.915c-4.358,-3.82 -11.832,-5.046 -18.371,-5.046Zm-246.43,0.78l0,30.23c0,8.92 5.361,13.579 13.352,13.579c7.99,0 13.733,-4.659 13.733,-13.579l0,-30.23l13.153,0l0,30.047c0,15.288 -9.272,24.619 -26.886,24.619c-17.433,0 -26.886,-9.331 -26.886,-24.619l0,-30.047l13.534,0Zm-100.967,0c12.167,0 22.049,3.729 22.049,16.285c0,7.462 -4.222,13.252 -12.573,14.526l14.907,22.494l-15.67,0l-12.39,-21.133l-9.858,0l0,21.133l-13.351,0l0,-53.305l26.886,0Zm76.981,0l0,11.04l-30.549,0l0,9.695l23.011,0l0,11.055l-23.011,0l0,10.658l30.549,0l0,10.857l-43.702,0l0,-53.305l43.702,0Zm123.214,0l0,10.658l-19.333,0l0,42.647l-13.153,0l0,-42.647l-19.546,0l0,-10.658l52.032,0Zm52.033,0l0,11.04l-30.365,0l0,9.695l23.01,0l0,11.055l-23.01,0l0,10.658l30.365,0l0,10.857l-43.518,0l0,-53.305l43.518,0Zm38.498,0c11.984,0 22.049,3.729 22.049,16.285c0,7.462 -4.221,13.252 -12.574,14.526l14.893,22.494l-15.854,0l-12.192,-21.133l-9.872,0l0,21.133l-13.336,0l0,-53.305l26.886,0Zm148.37,29.6c-3.089,0 -5.799,2.709 -5.799,5.799c0,3.266 2.71,5.997 5.799,5.997c3.451,0 5.997,-2.731 5.997,-5.997c0,-3.09 -2.546,-5.799 -5.997,-5.799Zm16.251,0c-3.269,0 -5.798,2.709 -5.798,5.799c0,3.266 2.529,5.997 5.798,5.997c3.267,0 5.814,-2.731 5.814,-5.997c0,-3.09 -2.547,-5.799 -5.814,-5.799Zm-16.251,-16.633c-3.27,0 -5.799,2.711 -5.799,5.799c0,3.268 2.529,5.615 5.799,5.615c3.267,0 5.997,-2.347 5.997,-5.615c0,-3.088 -2.73,-5.799 -5.997,-5.799Zm16.251,0c-3.45,0 -5.798,2.711 -5.798,5.799c0,3.268 2.348,5.615 5.798,5.615c3.087,0 5.814,-2.347 5.814,-5.615c0,-3.088 -2.727,-5.799 -5.814,-5.799Zm-457.666,8.93c4.722,0 10.635,0.012 10.635,-5.811c0,-5.278 -5.334,-6.009 -10.056,-6.009l-11.795,0l0,11.82l11.216,0Zm290.527,0c4.723,0 10.834,0.012 10.834,-5.811c0,-5.278 -5.153,-6.009 -10.056,-6.009l-11.81,0l0,11.82l11.032,0Zm150.888,-25.563c-3.27,0 -5.799,2.531 -5.799,5.799c0,3.268 2.529,5.798 5.799,5.798c3.267,0 5.997,-2.53 5.997,-5.798c0,-3.268 -2.73,-5.799 -5.997,-5.799Z" style="fill:#a0a0a0;"/><path id="path2253" d="M466.179,69.322c-2.905,0 -5.447,2.543 -5.447,5.631c0,3.087 2.542,5.631 5.447,5.631c3.27,0 5.631,-2.544 5.631,-5.631c0,-3.088 -2.361,-5.631 -5.631,-5.631Zm-15.793,16.709c-3.087,0 -5.631,2.543 -5.631,5.631c0,3.088 2.544,5.448 5.631,5.448c3.086,0 5.615,-2.36 5.615,-5.448c0,-3.088 -2.529,-5.631 -5.615,-5.631Zm15.793,0c-3.086,0 -5.63,2.543 -5.63,5.631c0,3.088 2.544,5.448 5.63,5.448c3.27,0 5.631,-2.36 5.631,-5.448c0,-3.088 -2.361,-5.631 -5.631,-5.631Zm-15.793,16.71c-3.087,0 -5.631,2.357 -5.631,5.447c0,3.089 2.544,5.631 5.631,5.631c3.086,0 5.615,-2.542 5.615,-5.631c0,-3.09 -2.529,-5.447 -5.615,-5.447Zm15.977,0c-3.27,0 -5.631,2.357 -5.631,5.447c0,3.089 2.361,5.631 5.631,5.631c3.086,0 5.63,-2.542 5.63,-5.631c0,-3.09 -2.544,-5.447 -5.63,-5.447Zm0,16.694c-3.27,0 -5.631,2.373 -5.631,5.462c0,3.089 2.361,5.448 5.631,5.448c2.905,0 5.63,-2.359 5.63,-5.448c0,-3.089 -2.725,-5.462 -5.63,-5.462Z" style="fill:#a0a0a0;"/></g></svg>

<?xml version="1.0" encoding="UTF-8" standalone="no"?>
<!DOCTYPE svg PUBLIC "-//W3C//DTD SVG 1.1//EN" "http://www.w3.org/Graphics/SVG/1.1/DTD/svg11.dtd">
<svg width="100%" height="100%" viewBox="0 0 540 200" version="1.1" xmlns="http://www.w3.org/2000/svg" xmlns:xlink="http://www.w3.org/1999/xlink" xml:space="preserve" xmlns:serif="http://www.serif.com/" style="fill-rule:evenodd;clip-rule:evenodd;stroke-linejoin:round;stroke-miterlimit:2;">
    <g id="reuters">
        <path id="path4285" d="M475.693,56L475.693,144C500.208,144 519.974,124.39 519.974,100.008C519.974,75.804 500.208,56 475.693,56ZM485.956,119.099C482.867,119.099 480.157,121.63 480.157,124.897C480.157,127.986 482.867,130.711 485.956,130.711C489.407,130.711 491.953,127.986 491.953,124.897C491.953,121.63 489.407,119.099 485.956,119.099ZM394.257,72.086C379.367,72.086 370.27,78.052 370.27,89.334C370.27,100.254 379.667,103.58 390.198,105.038C395.285,105.768 401.413,106.698 401.413,111.247C401.413,115.979 395.829,117.057 390.381,117.057C386.022,117.057 378.012,114.739 375.107,112.011L368.53,121.904C374.339,126.454 381.99,128.113 389.618,128.113C405.779,128.113 414.765,122.129 414.765,110.666C414.765,99.019 404.571,96.401 393.677,94.763C388.957,94.035 383.621,93.501 383.621,88.952C383.621,84.948 388.43,82.943 394.058,82.943C397.144,82.943 403.309,84.045 405.67,86.047L412.628,77.132C408.27,73.312 400.796,72.086 394.257,72.086ZM147.827,72.866L147.827,103.096C147.827,112.016 153.188,116.675 161.179,116.675C169.169,116.675 174.912,112.016 174.912,103.096L174.912,72.866L188.065,72.866L188.065,102.913C188.065,118.201 178.793,127.532 161.179,127.532C143.746,127.532 134.293,118.201 134.293,102.913L134.293,72.866L147.827,72.866ZM46.86,72.866C59.027,72.866 68.909,76.595 68.909,89.151C68.909,96.613 64.687,102.403 56.336,103.677L71.243,126.171L55.573,126.171L43.183,105.038L33.325,105.038L33.325,126.171L19.974,126.171L19.974,72.866L46.86,72.866ZM123.841,72.866L123.841,83.906L93.292,83.906L93.292,93.601L116.303,93.601L116.303,104.656L93.292,104.656L93.292,115.314L123.841,115.314L123.841,126.171L80.139,126.171L80.139,72.866L123.841,72.866ZM247.055,72.866L247.055,83.524L227.722,83.524L227.722,126.171L214.569,126.171L214.569,83.524L195.023,83.524L195.023,72.866L247.055,72.866ZM299.088,72.866L299.088,83.906L268.723,83.906L268.723,93.601L291.733,93.601L291.733,104.656L268.723,104.656L268.723,115.314L299.088,115.314L299.088,126.171L255.57,126.171L255.57,72.866L299.088,72.866ZM337.586,72.866C349.57,72.866 359.635,76.595 359.635,89.151C359.635,96.613 355.414,102.403 347.061,103.677L361.954,126.171L346.1,126.171L333.908,105.038L324.036,105.038L324.036,126.171L310.7,126.171L310.7,72.866L337.586,72.866ZM485.956,102.466C482.867,102.466 480.157,105.175 480.157,108.265C480.157,111.531 482.867,114.262 485.956,114.262C489.407,114.262 491.953,111.531 491.953,108.265C491.953,105.175 489.407,102.466 485.956,102.466ZM502.207,102.466C498.938,102.466 496.409,105.175 496.409,108.265C496.409,111.531 498.938,114.262 502.207,114.262C505.474,114.262 508.021,111.531 508.021,108.265C508.021,105.175 505.474,102.466 502.207,102.466ZM485.956,85.833C482.686,85.833 480.157,88.544 480.157,91.632C480.157,94.9 482.686,97.247 485.956,97.247C489.223,97.247 491.953,94.9 491.953,91.632C491.953,88.544 489.223,85.833 485.956,85.833ZM502.207,85.833C498.757,85.833 496.409,88.544 496.409,91.632C496.409,94.9 498.757,97.247 502.207,97.247C505.294,97.247 508.021,94.9 508.021,91.632C508.021,88.544 505.294,85.833 502.207,85.833ZM44.541,94.763C49.263,94.763 55.176,94.775 55.176,88.952C55.176,83.674 49.842,82.943 45.12,82.943L33.325,82.943L33.325,94.763L44.541,94.763ZM335.068,94.763C339.791,94.763 345.902,94.775 345.902,88.952C345.902,83.674 340.749,82.943 335.846,82.943L324.036,82.943L324.036,94.763L335.068,94.763ZM485.956,69.2C482.686,69.2 480.157,71.731 480.157,74.999C480.157,78.267 482.686,80.797 485.956,80.797C489.223,80.797 491.953,78.267 491.953,74.999C491.953,71.731 489.223,69.2 485.956,69.2Z" style="fill:rgb(208,208,208);"/>
        <path id="path2253" d="M466.179,69.322C463.274,69.322 460.732,71.865 460.732,74.953C460.732,78.04 463.274,80.584 466.179,80.584C469.449,80.584 471.81,78.04 471.81,74.953C471.81,71.865 469.449,69.322 466.179,69.322ZM450.386,86.031C447.299,86.031 444.755,88.574 444.755,91.662C444.755,94.75 447.299,97.11 450.386,97.11C453.472,97.11 456.001,94.75 456.001,91.662C456.001,88.574 453.472,86.031 450.386,86.031ZM466.179,86.031C463.093,86.031 460.549,88.574 460.549,91.662C460.549,94.75 463.093,97.11 466.179,97.11C469.449,97.11 471.81,94.75 471.81,91.662C471.81,88.574 469.449,86.031 466.179,86.031ZM450.386,102.741C447.299,102.741 444.755,105.098 444.755,108.188C444.755,111.277 447.299,113.819 450.386,113.819C453.472,113.819 456.001,111.277 456.001,108.188C456.001,105.098 453.472,102.741 450.386,102.741ZM466.363,102.741C463.093,102.741 460.732,105.098 460.732,108.188C460.732,111.277 463.093,113.819 466.363,113.819C469.449,113.819 471.993,111.277 471.993,108.188C471.993,105.098 469.449,102.741 466.363,102.741ZM466.363,119.435C463.093,119.435 460.732,121.808 460.732,124.897C460.732,127.986 463.093,130.345 466.363,130.345C469.268,130.345 471.993,127.986 471.993,124.897C471.993,121.808 469.268,119.435 466.363,119.435Z" style="fill:rgb(208,208,208);"/>
    </g>
</svg>
